projects/vfh1/img/icons-service/gym.svg

<svg viewBox="0 0 33 28" fill="none" xmlns="http://www.w3.org/2000/svg">
<path d="M2.63463 12.7477H3.35762V15.9208H2.63463C2.46631 15.9208 2.30489 15.854 2.18588 15.7349C2.06686 15.6159 2 15.4545 2 15.2862V13.3823C2 13.214 2.06686 13.0526 2.18588 12.9336C2.30489 12.8145 2.46631 12.7477 2.63463 12.7477Z" fill="#42474D"/>
<path d="M30.3654 12.7477H29.6424V15.9208H30.3654H30.4779C30.624 15.8961 30.7566 15.8204 30.8522 15.7072C30.9478 15.5939 31.0002 15.4505 31 15.3023V13.3823C31 13.214 30.9332 13.0526 30.8141 12.9336C30.6951 12.8145 30.5337 12.7477 30.3654 12.7477Z" fill="#42474D"/>
<path d="M21.8341 12.7477H11.174V15.9128H21.8341V12.7477Z" fill="#42474D"/>
<path d="M28.4053 9.50224H26.646C26.5327 9.5009 26.4213 9.53152 26.3247 9.59061L26.2042 9.687V18.9493C26.3217 19.0663 26.4802 19.1326 26.646 19.1341H28.4053C28.521 19.1345 28.6347 19.1039 28.7346 19.0457C28.8284 18.9888 28.9058 18.9086 28.9593 18.8128C29.0128 18.7171 29.0406 18.6091 29.0399 18.4995V10.1128C29.0337 9.94867 28.9641 9.79337 28.8457 9.67952C28.7274 9.56567 28.5695 9.50212 28.4053 9.50224Z" fill="#42474D"/>
<path d="M24.967 8H23.0631C22.9507 8.0004 22.8404 8.03028 22.7431 8.08667C22.6458 8.14305 22.5651 8.22397 22.5089 8.32133C22.4596 8.41543 22.4347 8.52039 22.4366 8.62659V20.0338C22.4355 20.1168 22.4509 20.1991 22.4819 20.2761C22.5129 20.353 22.5589 20.423 22.6172 20.4821C22.6755 20.5411 22.7449 20.588 22.8215 20.62C22.898 20.652 22.9802 20.6684 23.0631 20.6684H24.967C25.1353 20.6684 25.2968 20.6016 25.4158 20.4826C25.5348 20.3635 25.6017 20.2021 25.6017 20.0338V8.63463C25.6017 8.55129 25.5852 8.46876 25.5533 8.39177C25.5215 8.31477 25.4747 8.24481 25.4158 8.18588C25.3568 8.12695 25.2869 8.0802 25.2099 8.04831C25.1329 8.01641 25.0504 8 24.967 8Z" fill="#42474D"/>
<path d="M4.5947 9.50222C4.46159 9.50046 4.33165 9.54283 4.22517 9.62272L4.1368 9.69502C4.02353 9.81425 3.96027 9.97238 3.96007 10.1368V18.5316C3.95786 18.6059 3.97155 18.6799 4.00024 18.7485C4.04464 18.8706 4.12546 18.9761 4.23177 19.0508C4.33808 19.1255 4.46476 19.1658 4.5947 19.1662H6.35398C6.44247 19.1646 6.52964 19.1444 6.60988 19.107C6.69012 19.0697 6.76166 19.016 6.81991 18.9493V9.68698C6.70241 9.57006 6.54383 9.50374 6.37808 9.50222H4.5947Z" fill="#42474D"/>
<path d="M9.93686 8.00001H8.03298C7.92238 7.99937 7.81358 8.02802 7.71764 8.08305C7.62169 8.13808 7.54202 8.21752 7.48672 8.31331C7.42764 8.40998 7.39701 8.52135 7.39836 8.63464V20.0338C7.39836 20.2021 7.46522 20.3635 7.58424 20.4826C7.70325 20.6016 7.86467 20.6684 8.03298 20.6684H9.93686C10.0198 20.6684 10.102 20.652 10.1785 20.62C10.2551 20.588 10.3245 20.5411 10.3828 20.4821C10.4411 20.423 10.4871 20.353 10.5181 20.2761C10.5491 20.1991 10.5645 20.1168 10.5635 20.0338V8.63464C10.5645 8.55168 10.5491 8.46933 10.5181 8.39238C10.4871 8.31543 10.4411 8.2454 10.3828 8.18637C10.3245 8.12733 10.2551 8.08045 10.1785 8.04846C10.102 8.01647 10.0198 8 9.93686 8.00001Z" fill="#42474D"/>
</svg>

<svg viewBox="0 0 33 28" fill="none" xmlns="http://www.w3.org/2000/svg"><path d="M2.635 12.748h.723v3.173h-.723A.634.634 0 012 15.286v-1.904a.634.634 0 01.635-.634zm27.73 0h-.723v3.173h.836a.627.627 0 00.522-.619v-1.92a.634.634 0 00-.635-.634zm-8.531 0h-10.66v3.165h10.66v-3.165zm6.571-3.246h-1.759a.602.602 0 00-.321.089l-.12.096v9.262a.634.634 0 00.441.185h1.76a.65.65 0 00.329-.088.634.634 0 00.305-.546v-8.387a.634.634 0 00-.635-.61zM24.967 8h-1.904a.643.643 0 00-.554.321.633.633 0 00-.072.306v11.407a.626.626 0 00.626.634h1.904a.635.635 0 00.635-.634v-11.4A.635.635 0 0024.967 8zM4.595 9.502a.602.602 0 00-.37.12l-.088.073a.643.643 0 00-.177.442v8.395a.522.522 0 00.04.216.634.634 0 00.595.418h1.759a.633.633 0 00.466-.217V9.687a.635.635 0 00-.442-.185H4.595zM9.937 8H8.033a.627.627 0 00-.546.313.602.602 0 00-.089.322v11.399a.635.635 0 00.635.634h1.904a.626.626 0 00.627-.634v-11.4A.628.628 0 009.936 8z" fill="#42474D"/></svg>
